school/img/country/EC.svg

<svg width="13" height="12" viewBox="0 0 13 12" fill="none" xmlns="http://www.w3.org/2000/svg">
<rect width="13" height="12" rx="2" fill="white"/>
<mask id="mask0" mask-type="alpha" maskUnits="userSpaceOnUse" x="0" y="0" width="13" height="12">
<rect width="13" height="12" rx="2" fill="white"/>
</mask>
<g mask="url(#mask0)">
<path fill-rule="evenodd" clip-rule="evenodd" d="M0 8.80004H13V5.60004H0V8.80004Z" fill="#0748AE"/>
<path fill-rule="evenodd" clip-rule="evenodd" d="M0 12H13V8.79999H0V12Z" fill="#DE2035"/>
<path fill-rule="evenodd" clip-rule="evenodd" d="M0 5.6H13V0H0V5.6Z" fill="#FFD935"/>
<path fill-rule="evenodd" clip-rule="evenodd" d="M5.75708 4.79999C5.45636 5.09189 5.26184 5.55664 5.26184 6.0801C5.26184 6.96376 5.81615 7.6801 6.49994 7.6801C7.18372 7.6801 7.73803 6.96376 7.73803 6.0801C7.73803 5.55666 7.54353 5.09193 7.24283 4.80002L6.80948 6.48009H6.19043L5.75708 4.79999Z" fill="#FFD935"/>
<path fill-rule="evenodd" clip-rule="evenodd" d="M6.49995 4.40002L6.80948 6.40002H6.19043L6.49995 4.40002Z" fill="#5FC0DC"/>
<path opacity="0.66" d="M8.04763 3.60001L7.11906 3.20001L6.50001 4.00001L5.88096 3.20001L4.95239 3.60001" stroke="#3F2821" stroke-width="0.666667" stroke-linecap="round" stroke-linejoin="round"/>
</g>
</svg>

<svg width="13" height="12" fill="none" xmlns="http://www.w3.org/2000/svg"><rect width="13" height="12" rx="2" fill="#fff"/><mask id="a" maskUnits="userSpaceOnUse" x="0" y="0" width="13" height="12"><rect width="13" height="12" rx="2" fill="#fff"/></mask><g mask="url(#a)"><path fill-rule="evenodd" clip-rule="evenodd" d="M0 8.8h13V5.6H0v3.2z" fill="#0748AE"/><path fill-rule="evenodd" clip-rule="evenodd" d="M0 12h13V8.8H0V12z" fill="#DE2035"/><path fill-rule="evenodd" clip-rule="evenodd" d="M0 5.6h13V0H0v5.6z" fill="#FFD935"/><path fill-rule="evenodd" clip-rule="evenodd" d="M5.757 4.8c-.3.292-.495.757-.495 1.28 0 .884.554 1.6 1.238 1.6.684 0 1.238-.716 1.238-1.6 0-.523-.194-.988-.495-1.28l-.434 1.68H6.19L5.757 4.8z" fill="#FFD935"/><path fill-rule="evenodd" clip-rule="evenodd" d="M6.5 4.4l.31 2h-.62l.31-2z" fill="#5FC0DC"/><path opacity=".66" d="M8.048 3.6l-.929-.4L6.5 4l-.619-.8-.929.4" stroke="#3F2821" stroke-width=".667" stroke-linecap="round" stroke-linejoin="round"/></g></svg>
